!!!OTL: 203. Sher
!!!Genre:	Sher
!!!Mode:	Major (Mixolydian)
!!!Listening/dance:	dance
!!!:	*g:dor
!!!One_Mode:	no
**kern
*I"P1
*clefG2
*k[f#]
*G:
*M2/4
*>A
!LO:TX:a:i:t=G-major
=1
2dd
=2
2dd
=3!|:
8d
4g
8a
=4
8aL
(8qcc/
8bJ)
4b
=5
8ddL
16bL
16bJJ
8aL
8gJ
=6
4dd
4dd
=7
8d
4g
8a
=8
8aL
(8qcc'/
8bJ)
4b
=9
8ddL
16bL
16bJJ
8aL
16bL
16bJJ
*>A1
=10
2g
*>A2
=:|!
4.g
=11!|:
*>B
8b
=12
8bL
(8qdd/
8ccJ)
4cc
=13
8bL
8qdd/
8ccJ
4cc
=14
8.bL
16aJk
8bL
8ccJ
=15
(8qcc/
8b)
4a
8a
=16
8aL
(8qcc/
8bJ)
4b
=17
8aL
(8qcc/
8bJ)
4b
=18
(8qb/
8aL)
8gJ
8aL
8bJ
=
8a
4g
=19:|!|:
*>C
16bLL
16ccJJ
=20
8ddL
8bJ
[4dd
=21
8ddL]
8bJ
[4dd
=22
8ddL]
8ggJ
8ff#L
8eeJ
*>C1
=23
4dd
8r
*>C2
=24:|!
4dd
4r
=25||
*>D
16ddLL
16eeJJ
4ffn
8ee
=26
8ddL
8ccJ
4b
=27
16bLL
16ccJJ
4dd
8cc
=28
16bLL
16cc
16b
16aJJ
4g
=29
16ddLL
16eeJJ
4ffn
8ee
=30
8ddL
8ee
8b
8ccJ
=31
4.dd
16eeLL
16ff#XJJ
=32
2gg
=33
16ddLL
16eeJJ
4ffn
8ee
=34
8ddL
8ccJ
4b
=35
16bLL
16ccJJ
4dd
8cc
=36
16bLL
16bJ
8aJ
4g
=37
8aL
8b
8cc
8ddJ
=38
8bL
8g
8a
8f#J
=39
[2g
=40
4g]
4r
=41||
*>E
*k[b-]
*>b<
*g:dor
!LO:TX:a:i:t=G-raised-fourth
2dd
=42
2dd
=43
(8qff/
4dd)
4dd
=44
4dd
4dd
=45!|:
4cc#
4dd
=46
4a
4b-
=47
4cc#X
4dd
=48
4.g
24b-LL
24ccn
24b-JJ
=49
8aL
8b-
8cc#X
8b-J
*>b<1
=50
16cc#XLL
16cc#J
8b-J
8aL
8gJ
=51
*^
4g	(16gLL
.	16f#XJ
.	8gJ)
4b-	(16b-LL
.	16aJ
.	8b-J)
=52	=52
4dd	(16ddLL
.	16cc#XJ
.	8ddJ)
4gg	4gg
*v	*v
*>b<2
=53:|!
8cc#XL
8b-
8a
8b-J
=54
[2g
=55
4g]
4r
*>eM
==
*-
